X:48
T:Sligo Hornpipe. JBu.48
T:Quick’s Hornpipe,aka. JBu.48
O:England,South Yorkshire
S:Joshua Burnett’s MS,c1835,S.Yorkshire
M:4/4
L:1/8
Q:1/2=90
R:.hornpipe
N:No time sig in MS
Z:vmp.R.Greig.2011
K:D
fg|afge dfed|cdec ABAG|FAdf gfed|ceAA A2fg|
afge dfed|cdec ABAG|FAdA Bgec|d2d2d2:|
|:cd|eAAA eAfA|eAAA fdfa|agfe dcBA|GBBB cBAG|
FAdA “sic.”cdfc|defd efge|fgaf Bgec|d2d2d2:|

